img/icon-figma.svg

<svg fill="none" height="24" viewBox="0 0 24 24" width="24" xmlns="http://www.w3.org/2000/svg"><g fill="#fff"><path d="m8.5 2c-1.933 0-3.5 1.567-3.5 3.5s1.567 3.5 3.5 3.5h3v-7z" fill-opacity=".7"/><path d="m12.5 2v7h3c1.933 0 3.5-1.567 3.5-3.5s-1.567-3.5-3.5-3.5z"/><path d="m5 12c0-1.933 1.567-3.5 3.5-3.5h3v7h-3c-1.933 0-3.5-1.567-3.5-3.5z" fill-opacity=".8"/><path d="m12.5 8.5h3c1.933 0 3.5 1.567 3.5 3.5s-1.567 3.5-3.5 3.5-3-1.567-3-3.5z"/><path d="m5 18.5c0-1.933 1.567-3.5 3.5-3.5h3v3.5c0 1.933-1.567 3.5-3.5 3.5s-3-1.567-3-3.5z" fill-opacity=".6"/></g></svg>

<svg width="24" height="24" viewBox="0 0 24 24" fill="none" xmlns="http://www.w3.org/2000/svg">
<path d="M8.5 2C6.567 2 5 3.567 5 5.5C5 7.433 6.567 9 8.5 9H11.5V2H8.5Z" fill="white" fill-opacity="0.7"/>
<path d="M12.5 2V9H15.5C17.433 9 19 7.433 19 5.5C19 3.567 17.433 2 15.5 2H12.5Z" fill="white"/>
<path d="M5 12C5 10.067 6.567 8.5 8.5 8.5H11.5V15.5H8.5C6.567 15.5 5 13.933 5 12Z" fill="white" fill-opacity="0.8"/>
<path d="M12.5 8.5H15.5C17.433 8.5 19 10.067 19 12C19 13.933 17.433 15.5 15.5 15.5C13.567 15.5 12.5 13.933 12.5 12V8.5Z" fill="white"/>
<path d="M5 18.5C5 16.567 6.567 15 8.5 15H11.5V18.5C11.5 20.433 9.933 22 8 22C6.067 22 5 20.433 5 18.5Z" fill="white" fill-opacity="0.6"/>
</svg>
